icons/UnrealEngine.svg

<svg xmlns="http://www.w3.org/2000/svg" width="256" height="256" fill="none" viewBox="0 0 256 256"><rect width="256" height="256" fill="#0E1128" rx="60"/><path fill="#fff" fill-rule="evenodd" d="M191.143 143.122C189.324 151.847 181.238 174.244 155.447 186.37L145.092 174.776L127.616 192.265C117.672 192.132 107.894 189.712 99.0459 185.194C90.1974 180.676 82.5184 174.182 76.6089 166.22C78.465 166.796 80.382 167.155 82.3213 167.291C85.184 167.343 88.2815 166.298 88.2815 161.513V114.319C88.3217 113.106 88.0766 111.9 87.5657 110.798C87.0548 109.696 86.2923 108.728 85.339 107.971C84.3857 107.214 83.2679 106.69 82.0748 106.439C80.8818 106.189 79.6465 106.22 78.4674 106.529C70.3749 108.385 63.9126 128.484 63.9126 128.484C63.8219 119.204 65.7623 110.017 69.599 101.559C73.4357 93.1019 79.0766 85.5779 86.1296 79.5103C95.4128 71.5166 106.777 66.298 118.91 64.4561C110.075 69.4676 105.112 77.6407 105.112 84.4959C105.112 95.5318 111.79 94.1945 113.765 92.5716V156.268C114.102 157.067 114.54 157.82 115.07 158.508C115.952 159.723 117.114 160.711 118.459 161.389C119.803 162.066 121.29 162.414 122.797 162.403C129.481 162.403 138.154 154.807 138.154 154.807V103.25C138.154 98.0051 134.183 91.6692 130.205 89.4945C130.205 89.4945 137.567 88.1962 143.247 92.5261C144.314 91.2285 145.448 89.9869 146.644 88.8064C159.901 75.8555 172.389 72.1682 182.79 70.3245C182.79 70.3245 163.879 85.1191 163.879 104.971C163.879 119.733 164.264 155.736 164.264 155.736C171.28 162.481 181.714 152.737 191.143 143.122Z" clip-rule="evenodd"/><path fill="#fff" fill-rule="evenodd" d="M128.47 23C107.61 23 87.2186 29.1579 69.8741 40.6951C52.5296 52.2323 39.0113 68.6306 31.0285 87.8162C23.0457 107.002 20.957 128.113 25.0266 148.481C29.0962 168.848 39.1413 187.557 53.8915 202.241C68.6418 216.925 87.4348 226.925 107.894 230.976C128.353 235.027 149.56 232.948 168.832 225.001C188.104 217.054 204.576 203.596 216.165 186.33C227.755 169.063 233.94 148.763 233.94 127.997C233.94 100.15 222.828 73.4435 203.049 53.7528C183.269 34.0621 156.443 23 128.47 23V23ZM128.47 228.787C108.444 228.787 88.8682 222.875 72.2174 211.799C55.5666 200.723 42.589 184.98 34.9258 166.562C27.2625 148.143 25.2578 127.876 29.1651 108.323C33.0724 88.7706 42.7163 70.8104 56.8772 56.714C71.0381 42.6176 89.0799 33.0181 108.721 29.1296C128.362 25.2411 148.721 27.2381 167.222 34.8682C185.723 42.4982 201.536 55.4186 212.661 71.9953C223.785 88.5721 229.723 108.061 229.721 127.997C229.721 154.73 219.054 180.368 200.066 199.271C181.077 218.174 155.324 228.793 128.47 228.793V228.787Z" clip-rule="evenodd"/></svg>

<svg xmlns="http://www.w3.org/2000/svg" width="256" height="256" fill="none" viewBox="0 0 256 256"><rect width="256" height="256" fill="#0E1128" rx="60"/><path fill="#fff" fill-rule="evenodd" d="M191.14 143.12c-1.82 8.73-9.9 31.12-35.7 43.25l-10.35-11.6-17.47 17.5a65 65 0 0 1-28.57-7.08 64.4 64.4 0 0 1-22.44-18.97q2.8.87 5.71 1.07c2.86.05 5.96-1 5.96-5.78v-47.2a7.76 7.76 0 0 0-6.2-7.87 8 8 0 0 0-3.61.09c-8.1 1.86-14.56 21.95-14.56 21.95a63.7 63.7 0 0 1 22.22-48.97 65 65 0 0 1 32.78-15.05c-8.83 5-13.8 13.18-13.8 20.04 0 11.03 6.68 9.7 8.66 8.07v63.7q.5 1.2 1.3 2.24a9.4 9.4 0 0 0 7.73 3.9c6.68 0 15.35-7.6 15.35-7.6v-51.56c0-5.24-3.97-11.58-7.94-13.76 0 0 7.36-1.3 13.04 3.04q1.6-1.95 3.4-3.72c13.25-12.95 25.74-16.64 36.14-18.49 0 0-18.91 14.8-18.91 34.65 0 14.76.38 50.77.38 50.77 7.02 6.74 17.45-3 26.88-12.62" clip-rule="evenodd"/><path fill="#fff" fill-rule="evenodd" d="M128.47 23a106 106 0 0 0-58.6 17.7 105 105 0 0 0-38.84 47.12 104.6 104.6 0 0 0-6 60.66 105 105 0 0 0 28.86 53.76 105.6 105.6 0 0 0 54 28.74 106 106 0 0 0 60.94-5.98 105.4 105.4 0 0 0 47.33-38.67 104.66 104.66 0 0 0-13.11-132.58A105.7 105.7 0 0 0 128.47 23m0 205.79c-20.03 0-39.6-5.91-56.25-17a101 101 0 0 1-37.3-45.23 100.4 100.4 0 0 1-5.75-58.24 100.7 100.7 0 0 1 27.7-51.6 101.4 101.4 0 0 1 51.85-27.59c19.64-3.89 40-1.9 58.5 5.74A101 101 0 0 1 212.66 72a100.5 100.5 0 0 1-12.6 127.27 101.5 101.5 0 0 1-71.59 29.52" clip-rule="evenodd"/></svg>
